X: 20500
T: John Leary's
R: slide
M: 12/8
K: Gmajor
G2e dBG F2E E2G|FGA DEF G2B DEF|G2e dBG F2E E2G|FGA DEF G3 G3:|
d2B g2B d2c A2B|cBA efe d2B g2B|d2B g2B d2c A2g|fed cBA G3 g3:|
fed c2e dcd B2d|fed cBA G2A B2d|fed c2e dcd B2d|fed cBA G3 G3:|

